web-components-icons/ea00-chart/SVG/line.svg

<svg xmlns="http://www.w3.org/2000/svg" viewBox="0 0 512 512"><title>line</title><g id="line"><path d="M64,448H480v32H32V32H64ZM216.38,257.62,96,416V364.8l97.22-129.62,41.18-33L207.09,168.1,96,224V186l119.92-58.1,43.47,54.34L368.43,95l55.92,85.7L480,114v47l-38,46.72L480,266l.49,53.28-58.5-87L339.51,333.61,254.39,227.22Zm63-50.39,60.13,75.16,64.33-77.11L361.17,141.8Z"/></g></svg>

<?xml version="1.0" encoding="utf-8"?>
<!-- Generator: Adobe Illustrator 24.2.0, SVG Export Plug-In . SVG Version: 6.00 Build 0)  -->
<svg version="1.1" id="Layer_1" xmlns="http://www.w3.org/2000/svg" xmlns:xlink="http://www.w3.org/1999/xlink" x="0px" y="0px"
	 width="512px" height="512px" viewBox="0 0 512 512" xml:space="preserve">
<path d="M64,448h416v32H32V32h32V448z M216.4,257.6L96,416v-51.2l97.2-129.6l41.2-33l-27.3-34.1L96,224v-38l119.9-58.1l43.5,54.3
	l109-87.2l55.9,85.7L480,114v47l-38,46.7l38,58.3l0.5,53.3l-58.5-87l-82.5,101.3l-85.1-106.4L216.4,257.6z M279.4,207.2l60.1,75.2
	l64.3-77.1l-42.7-63.5L279.4,207.2z"/>
</svg>
